svg/600/outlined/local_drink-fill.svg

<svg xmlns="http://www.w3.org/2000/svg" width="48" height="48" viewBox="0 -960 960 960"><path d="M268.783-65.869q-30.073 0-53.08-19.804-23.008-19.805-26.138-50.153l-83.696-758.87h748.827l-83.695 758.87Q767.87-105.478 745-85.673 722.13-65.87 691.782-65.87H268.783ZM213.356-640h533.426l18.87-174.913H194.348L213.356-640ZM480-195.826q45 0 76.5-30.926T588-301.57q0-46.907-28.5-99.799Q531-454.261 480-502.826q-51 48.565-79.5 101.457Q372-348.477 372-301.57q0 43.892 31.5 74.818 31.5 30.926 76.5 30.926Z"/></svg>

<svg xmlns="http://www.w3.org/2000/svg" width="48" height="48" viewBox="0 -960 960 960"><path d="M268.78-65.87q-30.07 0-53.08-19.8-23-19.81-26.14-50.16L105.87-894.7H854.7L771-135.83q-3.13 30.35-26 50.16-22.87 19.8-53.22 19.8h-423ZM213.36-640h533.42l18.87-174.91h-571.3L213.36-640ZM480-195.83q45 0 76.5-30.92 31.5-30.93 31.5-74.82 0-46.91-28.5-99.8T480-502.83q-51 48.57-79.5 101.46-28.5 52.89-28.5 99.8 0 43.89 31.5 74.82 31.5 30.92 76.5 30.92Z"/></svg>
